svg/u1f196.svg

<svg viewBox="0 0 128 128" xmlns="http://www.w3.org/2000/svg">
  <g>
    <path d="M116,4H12c-4.42,0-8,3.58-8,8v104c0,4.42,3.58,8,8,8h104c4.42,0,8-3.58,8-8V12 C124,7.58,120.42,4,116,4z" fill="#427687"/>
    <path d="M109.7,4H11.5C7.37,4.03,4.03,7.37,4,11.5v97.9c-0.01,4.14,3.34,7.49,7.48,7.5c0.01,0,0.01,0,0.02,0 h98.1c4.14,0.01,7.49-3.34,7.5-7.48c0-0.01,0-0.01,0-0.02V11.5c0.09-4.05-3.13-7.41-7.18-7.5C109.85,4,109.77,4,109.7,4z" fill="#8CAFBF"/>
    <path d="M39.7,12.9c0-2.3-1.6-3-10.8-2.7c-7.7,0.3-11.5,1.2-13.8,4 s-2.9,8.5-3,15.3c0,4.8,0,9.3,2.5,9.3c3.4,0,3.4-7.9,6.2-12.3C26.2,17.8,39.7,15.9,39.7,12.9z" opacity="0.5" fill="#B4E1ED" enable-background="new "/>
    <g>
      <path d="M17.67,41.22h10.21l18.72,31.2h0.52l-0.52-8.97V41.22h8.71v46.54h-9.23L26.32,54.81H25.8l0.52,8.97 v23.99h-8.65V41.22z" fill="#FAFAFA"/>
      <path d="M74.45,85.65c-3.75-2.1-6.73-5-8.94-8.71S62.2,69.09,62.2,64.5c0-4.59,1.1-8.74,3.31-12.45 c2.21-3.71,5.19-6.61,8.94-8.71c3.75-2.1,7.85-3.15,12.32-3.15c3.64,0,6.97,0.64,9.98,1.92c3.01,1.28,5.6,3.09,7.77,5.43 l-6.04,5.92c-1.56-1.65-3.28-2.88-5.17-3.71c-1.88-0.82-4.08-1.23-6.6-1.23c-2.86,0-5.48,0.66-7.87,1.98 c-2.38,1.32-4.28,3.21-5.69,5.65c-1.41,2.45-2.11,5.23-2.11,8.35c0,3.12,0.71,5.9,2.14,8.35c1.43,2.45,3.35,4.33,5.75,5.66 c2.41,1.32,5.04,1.98,7.9,1.98c4.33,0,7.89-1.28,10.66-3.83c0.87-0.78,1.62-1.78,2.27-2.99c0.65-1.21,1.13-2.53,1.43-3.96H86.57 v-7.47h22.81c0.3,1.21,0.46,2.58,0.46,4.09c0,3.08-0.47,5.94-1.4,8.58c-0.93,2.64-2.35,4.96-4.26,6.96 c-2.08,2.25-4.59,3.98-7.54,5.17c-2.95,1.19-6.24,1.79-9.88,1.79C82.3,88.8,78.2,87.76,74.45,85.65z" fill="#FAFAFA"/>
    </g>
  </g>
</svg>

<svg viewBox="0 0 128 128" xmlns="http://www.w3.org/2000/svg">
  <defs/>
  <path d="M116,4 L12,4 C7.58,4 4,7.58 4,12 L4,116 C4,120.42 7.58,124 12,124 L116,124 C120.42,124 124,120.42 124,116 L124,12 C124,7.58 120.42,4 116,4 Z" fill="#427687"/>
  <path d="M109.7,4 L11.5,4 C7.37,4.03 4.03,7.37 4,11.5 L4,109.4 C3.99,113.54 7.34,116.89 11.48,116.9 C11.49,116.9 11.49,116.9 11.5,116.9 L109.6,116.9 C113.74,116.91 117.09,113.56 117.1,109.42 C117.1,109.41 117.1,109.41 117.1,109.4 L117.1,11.5 C117.19,7.45 113.97,4.09 109.92,4 C109.85,4 109.77,4 109.7,4 Z" fill="#8CAFBF"/>
  <path d="M39.7,12.9 C39.7,10.6 38.1,9.9 28.9,10.2 C21.2,10.5 17.4,11.4 15.1,14.2 C12.8,17 12.2,22.7 12.1,29.5 C12.1,34.3 12.1,38.8 14.6,38.8 C18,38.8 18,30.9 20.8,26.5 C26.2,17.8 39.7,15.9 39.7,12.9 Z" fill="#B4E1ED" opacity="0.5"/>
  <path d="M17.67,41.22 L27.88,41.22 L46.6,72.42 L47.12,72.42 L46.6,63.45 L46.6,41.22 L55.31,41.22 L55.31,87.76 L46.08,87.76 L26.32,54.81 L25.8,54.81 L26.32,63.78 L26.32,87.77 L17.67,87.77 L17.67,41.22 Z" fill="#FAFAFA"/>
  <path d="M74.45,85.65 C70.7,83.55 67.72,80.65 65.51,76.94 C63.3,73.23 62.2,69.09 62.2,64.5 C62.2,59.91 63.3,55.76 65.51,52.05 C67.72,48.34 70.7,45.44 74.45,43.34 C78.2,41.24 82.3,40.19 86.77,40.19 C90.41,40.19 93.74,40.83 96.75,42.11 C99.76,43.39 102.35,45.2 104.52,47.54 L98.48,53.46 C96.92,51.81 95.2,50.58 93.31,49.75 C91.43,48.93 89.23,48.52 86.71,48.52 C83.85,48.52 81.23,49.18 78.84,50.5 C76.46,51.82 74.56,53.71 73.15,56.15 C71.74,58.6 71.04,61.38 71.04,64.5 C71.04,67.62 71.75,70.4 73.18,72.85 C74.61,75.3 76.53,77.18 78.93,78.51 C81.34,79.83 83.97,80.49 86.83,80.49 C91.16,80.49 94.72,79.21 97.49,76.66 C98.36,75.88 99.11,74.88 99.76,73.67 C100.41,72.46 100.89,71.14 101.19,69.71 L86.57,69.71 L86.57,62.24 L109.38,62.24 C109.68,63.45 109.84,64.82 109.84,66.33 C109.84,69.41 109.37,72.27 108.44,74.91 C107.51,77.55 106.09,79.87 104.18,81.87 C102.1,84.12 99.59,85.85 96.64,87.04 C93.69,88.23 90.4,88.83 86.76,88.83 C82.3,88.8 78.2,87.76 74.45,85.65 Z" fill="#FAFAFA"/>
</svg>
